X:7317
T:The Scotch Hero's Reel
O:england
M:6/8
L:1/8
Q:180
K:G
cB/c/d cBG|BcA cBG|cB/c/d cBG|BAF GAB|cB/c/d cBG|BcA cBG|Bgf edc|BAF GAB|c
W: G D7 G G D D7 G D7 G C G Am D7
B/c/d cBG|BcA cBG|cB/c/d cBG|BAF GAB|cB/c/d cBG|BcA cBG|Bgf edc|BAF GAB|c
W: G D7 G G D D7 G D7 G C G Am D7
B3/2A/ GGD|GBG Bgd|cB3/2A/ GGD|GAF GAB|cB3/2A/ GGD|GBG Bgd|Bef gdc|BAF GAB|c
W: G G G7 G D D7 G G G7 C G Am D7
B3/2A/ GGD|GBG Bgd|cB3/2A/ GGD|GAF GAB|cB3/2A/ GGD|GBG Bgd|Bef gdc|BA3/2B/ AG2|
W: G G G7 G D D7 G G G7 C G D7 G


